X:2
T:Just Friends
C:John Klenner & Sam Lewis
L:1/4
M:C
I:linebreak $
K:B
"F7" z2 d2 S||"E" d4 |"E6" z2 (3c d c |"Em" =G4 |"A7" z2 c2 |"D#m" c4 |$"G#m" z c (3B c B |
"Dm" =F4 |"G7" z2 B2 |"C#m" B2 (3G B G Ox/||"F#7" A2 A2 |"B" A2 (3F A F |$"G#m" G A B d |
"C#7" g2 d2 | z G (3G A B |"C#m" d2"F#7" c2 |"F#m" z2"B7" "_D.S. al Coda" d2 ||$Ox/"F#7" A2 c2 |
"A#ø" c3/2 A/"D#7" c A |"G#m" B c"G#mM" d f |"C#7" g2 G2 |"C#m" f2"C7" d2 |"B6" B4 |]

